X:1
T:Constantine Constantine
T:Constantine Constantine
L:1/8
Q:1/4=85
M:2/4
K:C
V:1 treble+8 nm="Recorder" snm="Rec."
V:1
 A/(B/c/)A/ (TB/>A/E) | (^c/{/e}d/)d Td(3(=c/B/A/) | A/(B/c/)A/ TB/>A/E | (3AAA TA2 :| z ^d/e/ ee | %5
 (Te>d) Pd(c/B/) | (A4 | A4) | z ^d/e/ ee | (Te>d) Pdc/B/ | (A4 | A4) | z ^c/d/ de | %13
 (TB>A) (^d<e) | z ^c/d/ de | (TB>A) TA2 | z E/E/ ee | Te>d ee | (d/e/)e eTe | Te>d ee | %20
 z ^c/d/ Td3/2{/B}=c/ | TB>A TB2 | (A4 | A4) |] %24

